SVG_Azure_All/Virtual Subnet.svg

<?xml version="1.0" encoding="UTF-8" standalone="no"?>
<!-- Generated by Microsoft Visio, SVG Export Virtual Subnet.svg Page-1 -->

<svg
   xmlns:dc="http://purl.org/dc/elements/1.1/"
   xmlns:cc="http://creativecommons.org/ns#"
   xmlns:rdf="http://www.w3.org/1999/02/22-rdf-syntax-ns#"
   xmlns:svg="http://www.w3.org/2000/svg"
   xmlns="http://www.w3.org/2000/svg"
   xmlns:sodipodi="http://sodipodi.sourceforge.net/DTD/sodipodi-0.dtd"
   xmlns:inkscape="http://www.inkscape.org/namespaces/inkscape"
   width="0.7875157in"
   height="0.59061736in"
   viewBox="0 0 56.701039 42.524403"
   xml:space="preserve"
   class="st4"
   version="1.1"
   id="svg51"
   sodipodi:docname="Virtual Subnet.svg"
   style="font-size:12px;overflow:visible;color-interpolation-filters:sRGB;fill:none;fill-rule:evenodd;stroke-linecap:square;stroke-miterlimit:3"
   inkscape:version="0.92.5 (2060ec1f9f, 2020-04-08)"><metadata
   id="metadata55"><rdf:RDF><cc:Work
       rdf:about=""><dc:format>image/svg+xml</dc:format><dc:type
         rdf:resource="http://purl.org/dc/dcmitype/StillImage" /></cc:Work></rdf:RDF></metadata><sodipodi:namedview
   pagecolor="#ffffff"
   bordercolor="#666666"
   borderopacity="1"
   objecttolerance="10"
   gridtolerance="10"
   guidetolerance="10"
   inkscape:pageopacity="0"
   inkscape:pageshadow="2"
   inkscape:window-width="640"
   inkscape:window-height="480"
   id="namedview53"
   showgrid="false"
   inkscape:zoom="1.601301"
   inkscape:cx="37.804035"
   inkscape:cy="28.333493"
   inkscape:window-x="0"
   inkscape:window-y="0"
   inkscape:window-maximized="0"
   inkscape:current-layer="svg51" />
	<style
   type="text/css"
   id="style2">
	<![CDATA[
		.st1 {fill:url(#grad0-6);stroke:none;stroke-linecap:butt;stroke-width:34}
		.st2 {fill:#50e6ff;stroke:none;stroke-linecap:butt;stroke-width:34}
		.st3 {fill:#1490df;stroke:none;stroke-linecap:butt;stroke-width:34}
		.st4 {fill:none;fill-rule:evenodd;font-size:12px;overflow:visible;stroke-linecap:square;stroke-miterlimit:3}
	]]>
	</style>

	<defs
   id="Patterns_And_Gradients">
		<linearGradient
   id="grad0-6"
   x1="1.5069922"
   y1="98.482297"
   x2="10.516138"
   y2="98.482297"
   gradientTransform="scale(0.98610491,1.0140909)"
   gradientUnits="userSpaceOnUse">
			<stop
   offset="0"
   stop-color="#5e9624"
   stop-opacity="1"
   id="stop4" />
			<stop
   offset="0.24"
   stop-color="#6fb02a"
   stop-opacity="1"
   id="stop6" />
			<stop
   offset="0.5"
   stop-color="#7cc52f"
   stop-opacity="1"
   id="stop8" />
			<stop
   offset="0.755"
   stop-color="#83d232"
   stop-opacity="1"
   id="stop10" />
			<stop
   offset="1"
   stop-color="#86d633"
   stop-opacity="1"
   id="stop12" />
		</linearGradient>
	</defs>
	<g
   id="g49"
   transform="translate(-33.99353,-33.993185)">
		<title
   id="title16">Page-1</title>
		<g
   id="group232-1"
   transform="translate(34,-34.0157)">
			<title
   id="title18">Virtual Subnet</title>
			<g
   id="group233-2">
				<title
   id="title20">g12</title>
				<g
   id="shape234-3"
   transform="translate(22.2192,-15.0397)">
					<title
   id="title22">path2</title>
					<path
   d="m 5.93,99.87 c -3.96,0 -5.93,4.92 -3.13,7.79 2.8,2.88 7.58,0.83 7.57,-3.23 0,-2.52 -1.99,-4.56 -4.44,-4.56 z"
   class="st1"
   id="path24"
   inkscape:connector-curvature="0"
   style="fill:url(#grad0-6);stroke:none;stroke-width:34;stroke-linecap:butt" />
				</g>
				<g
   id="shape235-7"
   transform="translate(0.0153277)">
					<title
   id="title27">path4</title>
					<path
   d="m 23.67,107.57 -2.55,2.62 a 1.14963,1.18221 0 0 1 -1.62,0 L 0.67,90.9 a 2.29927,2.36441 0 0 1 0,-3.35 l 2.55,-2.62 20.44,20.96 a 1.14963,1.18221 0 0 1 0,1.68 z"
   class="st2"
   id="path29"
   inkscape:connector-curvature="0"
   style="fill:#50e6ff;stroke:none;stroke-width:34;stroke-linecap:butt" />
				</g>
				<g
   id="shape236-9"
   transform="translate(0,-17.074)">
					<title
   id="title32">path6</title>
					<path
   d="m 20.76,85.5 2.57,2.63 a 1.14963,1.18221 0 0 1 0,1.68 l -20.1,20.73 -2.56,-2.62 a 2.29927,2.36441 0 0 1 0,-3.35 L 19.15,85.52 a 1.14963,1.18221 0 0 1 1.62,0 z"
   class="st3"
   id="path34"
   inkscape:connector-curvature="0"
   style="fill:#1490df;stroke:none;stroke-width:34;stroke-linecap:butt" />
				</g>
				<g
   id="shape237-11"
   transform="translate(32.6552,-0.0647889)">
					<title
   id="title37">path8</title>
					<path
   d="m 20.79,84.93 2.54,2.62 a 2.29927,2.36441 0 0 1 0,3.34 l -18.82,19.3 a 1.14963,1.18221 0 0 1 -1.63,0 l -2.54,-2.62 a 1.14963,1.18221 0 0 1 0,-1.68 z"
   class="st2"
   id="path39"
   inkscape:connector-curvature="0"
   style="fill:#50e6ff;stroke:none;stroke-width:34;stroke-linecap:butt" />
				</g>
				<g
   id="shape238-13"
   transform="translate(33.0231,-17.1427)">
					<title
   id="title42">path10</title>
					<path
   d="m 22.98,107.92 -2.54,2.62 -20.1,-20.73 a 1.14963,1.18221 0 0 1 0,-1.67 L 2.9,85.5 a 1.14963,1.18221 0 0 1 1.63,0 L 23,104.55 a 2.29927,2.36441 0 0 1 -0.01,3.35 z"
   class="st3"
   id="path44"
   inkscape:connector-curvature="0"
   style="fill:#1490df;stroke:none;stroke-width:34;stroke-linecap:butt" />
				</g>
			</g>
		</g>
	</g>
</svg>

<?xml version="1.0" encoding="UTF-8" standalone="no"?>
<!DOCTYPE svg PUBLIC "-//W3C//DTD SVG 1.1//EN" "http://www.w3.org/Graphics/SVG/1.1/DTD/svg11.dtd">
<!-- Generated by Microsoft Visio, SVG Export Virtual Subnet.svg Page-1 -->
<svg xmlns="http://www.w3.org/2000/svg" xmlns:xlink="http://www.w3.org/1999/xlink" xmlns:ev="http://www.w3.org/2001/xml-events"
		width="1.73185in" height="1.53521in" viewBox="0 0 124.693 110.535" xml:space="preserve" color-interpolation-filters="sRGB"
		class="st4">
	<style type="text/css">
	<![CDATA[
		.st1 {fill:url(#grad0-6);stroke:none;stroke-linecap:butt;stroke-width:34}
		.st2 {fill:#50e6ff;stroke:none;stroke-linecap:butt;stroke-width:34}
		.st3 {fill:#1490df;stroke:none;stroke-linecap:butt;stroke-width:34}
		.st4 {fill:none;fill-rule:evenodd;font-size:12px;overflow:visible;stroke-linecap:square;stroke-miterlimit:3}
	]]>
	</style>

	<defs id="Patterns_And_Gradients">
		<linearGradient id="grad0-6" x1="0" y1="0" x2="1" y2="0" gradientTransform="rotate(-90 0.5 0.5)">
			<stop offset="0" stop-color="#5e9624" stop-opacity="1"/>
			<stop offset="0.24" stop-color="#6fb02a" stop-opacity="1"/>
			<stop offset="0.5" stop-color="#7cc52f" stop-opacity="1"/>
			<stop offset="0.755" stop-color="#83d232" stop-opacity="1"/>
			<stop offset="1" stop-color="#86d633" stop-opacity="1"/>
		</linearGradient>
	</defs>
	<g>
		<title>Page-1</title>
		<g id="group232-1" transform="translate(34,-34.0157)">
			<title>Virtual Subnet</title>
			<g id="group233-2">
				<title>g12</title>
				<g id="shape234-3" transform="translate(22.2192,-15.0397)">
					<title>path2</title>
					<path d="M5.93 99.87 C1.97 99.87 0 104.79 2.8 107.66 C5.6 110.54 10.38 108.49 10.37 104.43 C10.37 101.91 8.38
								 99.87 5.93 99.87 Z" class="st1"/>
				</g>
				<g id="shape235-7" transform="translate(0.0153277,-2.27374E-13)">
					<title>path4</title>
					<path d="M23.67 107.57 L21.12 110.19 A1.14963 1.18221 0 0 1 19.5 110.19 L0.67 90.9 A2.29927 2.36441 0 0 1 0.67
								 87.55 L3.22 84.93 L23.66 105.89 A1.14963 1.18221 0 0 1 23.66 107.57 L23.67 107.57 Z" class="st2"/>
				</g>
				<g id="shape236-9" transform="translate(0,-17.074)">
					<title>path6</title>
					<path d="M20.76 85.5 L23.33 88.13 A1.14963 1.18221 0 0 1 23.33 89.81 L3.23 110.54 L0.67 107.92 A2.29927 2.36441
								 0 0 1 0.67 104.57 L19.15 85.52 A1.14963 1.18221 0 0 1 20.77 85.52 L20.76 85.5 Z" class="st3"/>
				</g>
				<g id="shape237-11" transform="translate(32.6552,-0.0647889)">
					<title>path8</title>
					<path d="M20.79 84.93 L23.33 87.55 A2.29927 2.36441 0 0 1 23.33 90.89 L4.51 110.19 A1.14963 1.18221 0 0 1 2.88
								 110.19 L0.34 107.57 A1.14963 1.18221 0 0 1 0.34 105.89 L20.79 84.93 Z" class="st2"/>
				</g>
				<g id="shape238-13" transform="translate(33.0231,-17.1427)">
					<title>path10</title>
					<path d="M22.98 107.92 L20.44 110.54 L0.34 89.81 A1.14963 1.18221 0 0 1 0.34 88.14 L2.9 85.5 A1.14963 1.18221
								 0 0 1 4.53 85.5 L23 104.55 A2.29927 2.36441 0 0 1 22.99 107.9 L22.98 107.92 Z" class="st3"/>
				</g>
			</g>
		</g>
	</g>
</svg>
